public/flags/IR.svg

<svg fill="none" height="53" viewBox="0 0 61 53" width="61" xmlns="http://www.w3.org/2000/svg" xmlns:xlink="http://www.w3.org/1999/xlink"><mask id="a" height="43" maskUnits="userSpaceOnUse" width="59" x="1" y="3"><rect fill="#fff" height="41.4393" rx="3.7125" stroke="#fff" stroke-width="1.06071" width="57.9393" x="1.53036" y="3.53036"/></mask><mask id="b" fill="#fff"><path clip-rule="evenodd" d="m27.6627 21.1074c-.8461.7773-1.3771 1.8974-1.3771 3.1426 0 2.3472 1.8868 4.25 4.2143 4.25 2.3275 0 4.2143-1.9028 4.2143-4.25 0-1.2217-.5111-2.3229-1.3295-3.0982" fill="#fff" fill-rule="evenodd"/></mask><rect fill="#fff" height="41.4393" rx="3.7125" stroke="#f5f5f5" stroke-width="1.06071" width="57.9393" x="1.53036" y="3.53036"/><g mask="url(#a)"><g clip-rule="evenodd" fill-rule="evenodd"><path d="m1 17.1667h59v-14.1667h-59z" fill="#38bb56"/><path d="m1 45.5h59v-14.1667h-59z" fill="#de1b27"/><path d="m4.51671 14.3333c-.39054 0-.70714.3166-.70714.7072v1.419c0 .3905.3166.7071.70714.7071h1.39524c.39055 0 .70714-.3166.70714-.7071v-1.419c0-.3906-.31659-.7072-.70714-.7072zm5.61899 0c-.3905 0-.70709.3166-.70709.7072v1.419c0 .3905.31659.7071.70709.7071h1.3953c.3905 0 .7071-.3166.7071-.7071v-1.419c0-.3906-.3166-.7072-.7071-.7072zm4.9119.7072c0-.3906.3166-.7072.7071-.7072h1.3953c.3905 0 .7071.3166.7071.7072v1.419c0 .3905-.3166.7071-.7071.7071h-1.3953c-.3905 0-.7071-.3166-.7071-.7071zm6.3264-.7072c-.3906 0-.7072.3166-.7072.7072v1.419c0 .3905.3166.7071.7072.7071h1.3952c.3906 0 .7072-.3166.7072-.7071v-1.419c0-.3906-.3166-.7072-.7072-.7072zm4.9118.7072c0-.3906.3166-.7072.7072-.7072h1.3952c.3906 0 .7072.3166.7072.7072v1.419c0 .3905-.3166.7071-.7072.7071h-1.3952c-.3906 0-.7072-.3166-.7072-.7071zm6.3262-.7072c-.3906 0-.7072.3166-.7072.7072v1.419c0 .3905.3166.7071.7072.7071h1.3952c.3906 0 .7071-.3166.7071-.7071v-1.419c0-.3906-.3165-.7072-.7071-.7072zm4.9118.7072c0-.3906.3166-.7072.7072-.7072h1.3952c.3905 0 .7071.3166.7071.7072v1.419c0 .3905-.3166.7071-.7071.7071h-1.3952c-.3906 0-.7072-.3166-.7072-.7071zm6.3264-.7072c-.3905 0-.7071.3166-.7071.7072v1.419c0 .3905.3166.7071.7071.7071h1.3952c.3906 0 .7072-.3166.7072-.7071v-1.419c0-.3906-.3166-.7072-.7072-.7072zm4.9119.7072c0-.3906.3165-.7072.7071-.7072h1.3952c.3906 0 .7072.3166.7072.7072v1.419c0 .3905-.3166.7071-.7072.7071h-1.3952c-.3905 0-.7071-.3166-.7071-.7071zm6.3261-.7072c-.3906 0-.7072.3166-.7072.7072v1.419c0 .3905.3166.7071.7072.7071h1.3952c.3906 0 .7072-.3166.7072-.7071v-1.419c0-.3906-.3166-.7072-.7072-.7072zm-51.27858 17.7072c0-.3906.3166-.7072.70714-.7072h1.39524c.39054 0 .70714.3166.70714.7072v1.419c0 .3906-.3166.7072-.70714.7072h-1.39524c-.39054 0-.70714-.3166-.70714-.7072zm6.32608-.7072c-.3905 0-.70709.3166-.70709.7072v1.419c0 .3906.31659.7072.70709.7072h1.3953c.3905 0 .7071-.3166.7071-.7072v-1.419c0-.3906-.3166-.7072-.7071-.7072zm4.9119.7072c0-.3906.3166-.7072.7071-.7072h1.3953c.3905 0 .7071.3166.7071.7072v1.419c0 .3906-.3166.7072-.7071.7072h-1.3953c-.3905 0-.7071-.3166-.7071-.7072zm6.3264-.7072c-.3906 0-.7072.3166-.7072.7072v1.419c0 .3906.3166.7072.7072.7072h1.3952c.3906 0 .7072-.3166.7072-.7072v-1.419c0-.3906-.3166-.7072-.7072-.7072zm4.9118.7072c0-.3906.3166-.7072.7072-.7072h1.3952c.3906 0 .7072.3166.7072.7072v1.419c0 .3906-.3166.7072-.7072.7072h-1.3952c-.3906 0-.7072-.3166-.7072-.7072zm6.3262-.7072c-.3906 0-.7072.3166-.7072.7072v1.419c0 .3906.3166.7072.7072.7072h1.3952c.3906 0 .7071-.3166.7071-.7072v-1.419c0-.3906-.3165-.7072-.7071-.7072zm4.9118.7072c0-.3906.3166-.7072.7072-.7072h1.3952c.3905 0 .7071.3166.7071.7072v1.419c0 .3906-.3166.7072-.7071.7072h-1.3952c-.3906 0-.7072-.3166-.7072-.7072zm6.3264-.7072c-.3905 0-.7071.3166-.7071.7072v1.419c0 .3906.3166.7072.7071.7072h1.3952c.3906 0 .7072-.3166.7072-.7072v-1.419c0-.3906-.3166-.7072-.7072-.7072zm4.9119.7072c0-.3906.3165-.7072.7071-.7072h1.3952c.3906 0 .7072.3166.7072.7072v1.419c0 .3906-.3166.7072-.7072.7072h-1.3952c-.3905 0-.7071-.3166-.7071-.7072zm6.3261-.7072c-.3906 0-.7072.3166-.7072.7072v1.419c0 .3906.3166.7072.7072.7072h1.3952c.3906 0 .7072-.3166.7072-.7072v-1.419c0-.3906-.3166-.7072-.7072-.7072z" fill="#fff" fill-opacity=".5"/></g><path d="m26.7058 20.066c-1.1268 1.0353-1.8344 2.5286-1.8344 4.184h2.8285c0-.835.3544-1.5818.9196-2.1011zm-1.8344 4.184c0 3.117 2.5087 5.6643 5.6285 5.6643v-2.8286c-1.5351 0-2.8-1.2583-2.8-2.8357zm5.6285 5.6643c3.1198 0 5.6286-2.5473 5.6286-5.6643h-2.8286c0 1.5774-1.2648 2.8357-2.8 2.8357zm5.6286-5.6643c0-1.624-.6811-3.0923-1.7711-4.1249l-1.9453 2.0534c.5467.5179.8878 1.2522.8878 2.0715z" fill="#d80915" mask="url(#b)"/><rect fill="#d80915" height="5.66667" rx="1.40476" width="2.80952" x="29.0952" y="22.8333"/></g></svg>

<svg width="61" height="53" viewBox="0 0 61 53" fill="none" xmlns="http://www.w3.org/2000/svg">
<rect x="1.53036" y="3.53036" width="57.9393" height="41.4393" rx="3.7125" fill="white" stroke="#F5F5F5" stroke-width="1.06071"/>
<mask id="mask0" mask-type="alpha" maskUnits="userSpaceOnUse" x="1" y="3" width="59" height="43">
<rect x="1.53036" y="3.53036" width="57.9393" height="41.4393" rx="3.7125" fill="white" stroke="white" stroke-width="1.06071"/>
</mask>
<g mask="url(#mask0)">
<path fill-rule="evenodd" clip-rule="evenodd" d="M1 17.1667H60V3H1V17.1667Z" fill="#38BB56"/>
<path fill-rule="evenodd" clip-rule="evenodd" d="M1 45.5H60V31.3333H1V45.5Z" fill="#DE1B27"/>
<path fill-rule="evenodd" clip-rule="evenodd" d="M4.51671 14.3333C4.12617 14.3333 3.80957 14.6499 3.80957 15.0405V16.4595C3.80957 16.85 4.12617 17.1666 4.51671 17.1666H5.91195C6.3025 17.1666 6.61909 16.85 6.61909 16.4595V15.0405C6.61909 14.6499 6.3025 14.3333 5.91195 14.3333H4.51671ZM10.1357 14.3333C9.7452 14.3333 9.42861 14.6499 9.42861 15.0405V16.4595C9.42861 16.85 9.7452 17.1666 10.1357 17.1666H11.531C11.9215 17.1666 12.2381 16.85 12.2381 16.4595V15.0405C12.2381 14.6499 11.9215 14.3333 11.531 14.3333H10.1357ZM15.0476 15.0405C15.0476 14.6499 15.3642 14.3333 15.7547 14.3333H17.15C17.5405 14.3333 17.8571 14.6499 17.8571 15.0405V16.4595C17.8571 16.85 17.5405 17.1666 17.15 17.1666H15.7547C15.3642 17.1666 15.0476 16.85 15.0476 16.4595V15.0405ZM21.374 14.3333C20.9834 14.3333 20.6668 14.6499 20.6668 15.0405V16.4595C20.6668 16.85 20.9834 17.1666 21.374 17.1666H22.7692C23.1598 17.1666 23.4764 16.85 23.4764 16.4595V15.0405C23.4764 14.6499 23.1598 14.3333 22.7692 14.3333H21.374ZM26.2858 15.0405C26.2858 14.6499 26.6024 14.3333 26.993 14.3333H28.3882C28.7788 14.3333 29.0954 14.6499 29.0954 15.0405V16.4595C29.0954 16.85 28.7788 17.1666 28.3882 17.1666H26.993C26.6024 17.1666 26.2858 16.85 26.2858 16.4595V15.0405ZM32.612 14.3333C32.2214 14.3333 31.9048 14.6499 31.9048 15.0405V16.4595C31.9048 16.85 32.2214 17.1666 32.612 17.1666H34.0072C34.3978 17.1666 34.7143 16.85 34.7143 16.4595V15.0405C34.7143 14.6499 34.3978 14.3333 34.0072 14.3333H32.612ZM37.5238 15.0405C37.5238 14.6499 37.8404 14.3333 38.231 14.3333H39.6262C40.0167 14.3333 40.3333 14.6499 40.3333 15.0405V16.4595C40.3333 16.85 40.0167 17.1666 39.6262 17.1666H38.231C37.8404 17.1666 37.5238 16.85 37.5238 16.4595V15.0405ZM43.8502 14.3333C43.4597 14.3333 43.1431 14.6499 43.1431 15.0405V16.4595C43.1431 16.85 43.4597 17.1666 43.8502 17.1666H45.2454C45.636 17.1666 45.9526 16.85 45.9526 16.4595V15.0405C45.9526 14.6499 45.636 14.3333 45.2454 14.3333H43.8502ZM48.7621 15.0405C48.7621 14.6499 49.0786 14.3333 49.4692 14.3333H50.8644C51.255 14.3333 51.5716 14.6499 51.5716 15.0405V16.4595C51.5716 16.85 51.255 17.1666 50.8644 17.1666H49.4692C49.0787 17.1666 48.7621 16.85 48.7621 16.4595V15.0405ZM55.0882 14.3333C54.6976 14.3333 54.381 14.6499 54.381 15.0405V16.4595C54.381 16.85 54.6976 17.1666 55.0882 17.1666H56.4834C56.874 17.1666 57.1906 16.85 57.1906 16.4595V15.0405C57.1906 14.6499 56.874 14.3333 56.4834 14.3333H55.0882ZM3.80962 32.0405C3.80962 31.6499 4.12622 31.3333 4.51676 31.3333H5.912C6.30254 31.3333 6.61914 31.6499 6.61914 32.0405V33.4595C6.61914 33.8501 6.30254 34.1667 5.912 34.1667H4.51676C4.12622 34.1667 3.80962 33.8501 3.80962 33.4595V32.0405ZM10.1357 31.3333C9.7452 31.3333 9.42861 31.6499 9.42861 32.0405V33.4595C9.42861 33.8501 9.7452 34.1667 10.1357 34.1667H11.531C11.9215 34.1667 12.2381 33.8501 12.2381 33.4595V32.0405C12.2381 31.6499 11.9215 31.3333 11.531 31.3333H10.1357ZM15.0476 32.0405C15.0476 31.6499 15.3642 31.3333 15.7547 31.3333H17.15C17.5405 31.3333 17.8571 31.6499 17.8571 32.0405V33.4595C17.8571 33.8501 17.5405 34.1667 17.15 34.1667H15.7547C15.3642 34.1667 15.0476 33.8501 15.0476 33.4595V32.0405ZM21.374 31.3333C20.9834 31.3333 20.6668 31.6499 20.6668 32.0405V33.4595C20.6668 33.8501 20.9834 34.1667 21.374 34.1667H22.7692C23.1598 34.1667 23.4764 33.8501 23.4764 33.4595V32.0405C23.4764 31.6499 23.1598 31.3333 22.7692 31.3333H21.374ZM26.2858 32.0405C26.2858 31.6499 26.6024 31.3333 26.993 31.3333H28.3882C28.7788 31.3333 29.0954 31.6499 29.0954 32.0405V33.4595C29.0954 33.8501 28.7788 34.1667 28.3882 34.1667H26.993C26.6024 34.1667 26.2858 33.8501 26.2858 33.4595V32.0405ZM32.612 31.3333C32.2214 31.3333 31.9048 31.6499 31.9048 32.0405V33.4595C31.9048 33.8501 32.2214 34.1667 32.612 34.1667H34.0072C34.3978 34.1667 34.7143 33.8501 34.7143 33.4595V32.0405C34.7143 31.6499 34.3978 31.3333 34.0072 31.3333H32.612ZM37.5238 32.0405C37.5238 31.6499 37.8404 31.3333 38.231 31.3333H39.6262C40.0167 31.3333 40.3333 31.6499 40.3333 32.0405V33.4595C40.3333 33.8501 40.0167 34.1667 39.6262 34.1667H38.231C37.8404 34.1667 37.5238 33.8501 37.5238 33.4595V32.0405ZM43.8502 31.3333C43.4597 31.3333 43.1431 31.6499 43.1431 32.0405V33.4595C43.1431 33.8501 43.4597 34.1667 43.8502 34.1667H45.2454C45.636 34.1667 45.9526 33.8501 45.9526 33.4595V32.0405C45.9526 31.6499 45.636 31.3333 45.2454 31.3333H43.8502ZM48.7621 32.0405C48.7621 31.6499 49.0786 31.3333 49.4692 31.3333H50.8644C51.255 31.3333 51.5716 31.6499 51.5716 32.0405V33.4595C51.5716 33.8501 51.255 34.1667 50.8644 34.1667H49.4692C49.0787 34.1667 48.7621 33.8501 48.7621 33.4595V32.0405ZM55.0882 31.3333C54.6976 31.3333 54.381 31.6499 54.381 32.0405V33.4595C54.381 33.8501 54.6976 34.1667 55.0882 34.1667H56.4834C56.874 34.1667 57.1906 33.8501 57.1906 33.4595V32.0405C57.1906 31.6499 56.874 31.3333 56.4834 31.3333H55.0882Z" fill="white" fill-opacity="0.5"/>
<mask id="path-6-inside-1" fill="white">
<path fill-rule="evenodd" clip-rule="evenodd" d="M27.6627 21.1074C26.8166 21.8847 26.2856 23.0048 26.2856 24.25C26.2856 26.5972 28.1724 28.5 30.4999 28.5V28.5C32.8274 28.5 34.7142 26.5972 34.7142 24.25C34.7142 23.0283 34.2031 21.9271 33.3847 21.1518"/>
</mask>
<path d="M26.7058 20.066C25.579 21.1013 24.8714 22.5946 24.8714 24.25H27.6999C27.6999 23.415 28.0543 22.6682 28.6195 22.1489L26.7058 20.066ZM24.8714 24.25C24.8714 27.367 27.3801 29.9143 30.4999 29.9143V27.0857C28.9648 27.0857 27.6999 25.8274 27.6999 24.25H24.8714ZM30.4999 29.9143C33.6197 29.9143 36.1285 27.367 36.1285 24.25H33.2999C33.2999 25.8274 32.0351 27.0857 30.4999 27.0857V29.9143ZM36.1285 24.25C36.1285 22.626 35.4474 21.1577 34.3574 20.1251L32.4121 22.1785C32.9588 22.6964 33.2999 23.4307 33.2999 24.25H36.1285Z" fill="#D80915" mask="url(#path-6-inside-1)"/>
<rect x="29.0952" y="22.8333" width="2.80952" height="5.66667" rx="1.40476" fill="#D80915"/>
</g>
</svg>
